assets/nativescript/original.svg

<svg viewBox="0 0 24 24" xmlns="http://www.w3.org/2000/svg" fill="#65ADF1"><path d="m1.77 1.76a5.68 5.68 0 0 1 4.03-1.76h12.6c1.37 0 2.65.6 3.83 1.76a5.43 5.43 0 0 1 1.77 3.94v12.77c0 1.34-.56 2.58-1.68 3.73a5.77 5.77 0 0 1 -4.07 1.8h-12.38a6.3 6.3 0 0 1 -4.1-1.57c-1.08-.98-1.67-2.4-1.77-4.3v-12.4a5.21 5.21 0 0 1 1.77-3.97zm6.25 8.3 7.93 10.06h2.12c.49-.06.88-.2 1.17-.43.3-.23.5-.56.64-1v-4.94c.08-.95.67-1.54 1.77-1.75-1.1-.4-1.69-1.02-1.77-1.86v-4.72c-.12-.44-.33-.8-.64-1.07a1.83 1.83 0 0 0 -1.09-.47h-2.15v10.2l-7.98-10.21h-2.23c-.56.1-.97.3-1.25.6s-.46.78-.54 1.43v4.85c-.35.69-.9 1.1-1.65 1.25.85.16 1.4.61 1.65 1.36v4.77c.02.55.2 1 .54 1.37.33.36.7.53 1.1.5h2.36z"/></svg>

<svg xmlns="http://www.w3.org/2000/svg" fill="#65adf1" viewBox="0 0 24 24"><path d="M1.77 1.76A5.68 5.68 0 0 1 5.8 0h12.6c1.37 0 2.65.6 3.83 1.76A5.43 5.43 0 0 1 24 5.7v12.77c0 1.34-.56 2.58-1.68 3.73a5.77 5.77 0 0 1-4.07 1.8H5.87a6.3 6.3 0 0 1-4.1-1.57C.69 21.45.1 20.03 0 18.13V5.73a5.21 5.21 0 0 1 1.77-3.97m6.25 8.3 7.93 10.06h2.12c.49-.06.88-.2 1.17-.43.3-.23.5-.56.64-1v-4.94c.08-.95.67-1.54 1.77-1.75q-1.65-.6-1.77-1.86V5.42c-.12-.44-.33-.8-.64-1.07a1.83 1.83 0 0 0-1.09-.47H16v10.2L8.02 3.87H5.79c-.56.1-.97.3-1.25.6S4.08 5.25 4 5.9v4.85c-.35.69-.9 1.1-1.65 1.25.85.16 1.4.61 1.65 1.36v4.77c.02.55.2 1 .54 1.37.33.36.7.53 1.1.5H8z"/></svg>
